X: 43224
T: Within A Mile Of Clonbur
R: reel
M: 4/4
K: Gmajor
|:Bdde gdea|gded BAAA|Bdde gded|ABAG EGGG:|
dege bgag|eBdg eaaa|1 dggg abag|
edef fggg:|2 bgaf gfed|BGAG EG G2||

